packages/dnb-eufemia/assets/icons/bicycle_medium.svg

<svg width="24" height="24" viewBox="0 0 24 24" fill="none" xmlns="http://www.w3.org/2000/svg">
<path d="M20.25 8.84875C21.067 8.84875 21.75 8.15591 21.75 7.32715C21.75 6.49838 21.067 5.80554 20.25 5.80554H16.842C16.325 5.80662 15.9609 6.35819 16.142 6.83922L17.1929 9.61105M19.5 15.696L17.1929 9.61105M10.5 5.80554L7.49494 5.0436M5.351 4.5L7.49494 5.0436M4.5 15.696L10.54 12.7995M10.54 12.7995L7.49494 5.0436M10.54 12.7995L17.1929 9.61105M8.25 15.696C8.25 17.7969 6.57107 19.5 4.5 19.5C2.42893 19.5 0.75 17.7969 0.75 15.696C0.75 13.5951 2.42893 11.892 4.5 11.892C6.57107 11.892 8.25 13.5951 8.25 15.696ZM23.25 15.696C23.25 17.7969 21.5711 19.5 19.5 19.5C17.4289 19.5 15.75 17.7969 15.75 15.696C15.75 13.5951 17.4289 11.892 19.5 11.892C21.5711 11.892 23.25 13.5951 23.25 15.696Z" stroke="black" stroke-width="1.5" stroke-linecap="round" stroke-linejoin="round"/>
</svg>

<svg width="24" height="24" viewBox="0 0 24 24" fill="none" xmlns="http://www.w3.org/2000/svg"><path d="M20.25 8.849c.817 0 1.5-.693 1.5-1.522 0-.829-.683-1.521-1.5-1.521h-3.408c-.517 0-.881.552-.7 1.033l1.05 2.772m2.308 6.085-2.307-6.085M10.5 5.806l-3.005-.762M5.35 4.5l2.144.544M4.5 15.696l6.04-2.896m0 0L7.495 5.043M10.54 12.8l6.653-3.189M8.25 15.696c0 2.1-1.679 3.804-3.75 3.804-2.071 0-3.75-1.703-3.75-3.804 0-2.1 1.679-3.804 3.75-3.804 2.071 0 3.75 1.703 3.75 3.804Zm15 0c0 2.1-1.679 3.804-3.75 3.804-2.071 0-3.75-1.703-3.75-3.804 0-2.1 1.679-3.804 3.75-3.804 2.071 0 3.75 1.703 3.75 3.804Z" stroke="#000" stroke-width="1.5" stroke-linecap="round" stroke-linejoin="round"/></svg>
